packages/elvis-assets-icons/icons/svg/src/lock.svg

<svg width="24" height="24" viewBox="0 0 24 24" fill="none" xmlns="http://www.w3.org/2000/svg">
<path d="M5.24927 24C4.00827 24 2.99927 22.991 2.99927 21.75V11.25C2.99927 10.009 4.00827 9 5.24927 9H5.99927V6C5.99927 2.692 8.69127 0 11.9993 0C15.3073 0 17.9993 2.692 17.9993 6V9H18.7493C19.9903 9 20.9993 10.009 20.9993 11.25V21.75C20.9993 22.991 19.9903 24 18.7493 24H5.24927ZM5.24927 10.5C4.83527 10.5 4.49927 10.836 4.49927 11.25V21.75C4.49927 22.164 4.83527 22.5 5.24927 22.5H18.7493C19.1633 22.5 19.4993 22.164 19.4993 21.75V11.25C19.4993 10.836 19.1633 10.5 18.7493 10.5H5.24927ZM16.4993 9V6C16.4993 3.519 14.4803 1.5 11.9993 1.5C9.51827 1.5 7.49927 3.519 7.49927 6V9H16.4993Z" fill="black"/>
<path d="M11.9993 18.75C11.5853 18.75 11.2493 18.414 11.2493 18V15C11.2493 14.586 11.5853 14.25 11.9993 14.25C12.4133 14.25 12.7493 14.586 12.7493 15V18C12.7493 18.414 12.4133 18.75 11.9993 18.75Z" fill="black"/>
</svg>

<svg width="24" height="24" fill="none" xmlns="http://www.w3.org/2000/svg"><path d="M5.25 24A2.252 2.252 0 013 21.75v-10.5A2.252 2.252 0 015.25 9H6V6c0-3.308 2.691-6 6-6 3.307 0 6 2.692 6 6v3h.75A2.252 2.252 0 0121 11.25v10.5A2.252 2.252 0 0118.75 24H5.25zm0-13.5a.75.75 0 00-.75.75v10.5c0 .414.335.75.75.75h13.5a.75.75 0 00.75-.75v-10.5a.75.75 0 00-.75-.75H5.25zM16.5 9V6c0-2.481-2.02-4.5-4.5-4.5A4.505 4.505 0 007.5 6v3h9z" fill="#000"/><path d="M12 18.75a.75.75 0 01-.75-.75v-3a.75.75 0 011.5 0v3a.75.75 0 01-.75.75z" fill="#000"/></svg>
